;START_OF_HEADER
;HEADER_VERSION:0.1
;FLAVOR:Griffin
;GENERATOR.NAME:Cura_SteamEngine
;GENERATOR.VERSION:5.6.0
;GENERATOR.BUILD_DATE:2023-11-28
;TARGET_MACHINE.NAME:Ultimaker S5
;EXTRUDER_TRAIN.0.INITIAL_TEMPERATURE:205
;EXTRUDER_TRAIN.0.MATERIAL.VOLUME_USED:3134
;EXTRUDER_TRAIN.0.MATERIAL.GUID:44a029e6-e31b-4c9e-a12f-9282e29a92ff
;EXTRUDER_TRAIN.0.NOZZLE.DIAMETER:0.4
;EXTRUDER_TRAIN.0.NOZZLE.NAME:AA 0.4
;BUILD_PLATE.INITIAL_TEMPERATURE:60
;BUILD_VOLUME.TEMPERATURE:28
;PRINT.TIME:1226
;PRINT.GROUPS:1
;PRINT.SIZE.MIN.X:134.852
;PRINT.SIZE.MIN.Y:89.852
;PRINT.SIZE.MIN.Z:0.2
;PRINT.SIZE.MAX.X:195.141
;PRINT.SIZE.MAX.Y:150.15
;PRINT.SIZE.MAX.Z:6.6
;SLICE_UUID:2d25a2bd-ce15-4cb8-b702-90b5f8007d91
;END_OF_HEADER
;Generated with Cura_SteamEngine 5.6.0
T0
M82 ;absolute extrusion mode

G92 E0
M190 S60
M109 S205
G280 S1
G0 Z20.001
G1 F2700 E-6.5
;LAYER_COUNT:26
;LAYER:0
M106 S255
M204 S1500
M205 X30 Y30
G1 F600 Z2.2
G0 F9000 X191.122 Y135.05 Z2.2
;TYPE:SKIRT
G1 F600 Z0.2
G1 F2700 E0
G1 X190.478 Y135.997 E0.01436
G1 X188.191 Y139.264 E0.06437
G1 X187.312 Y140.18 E0.08029
G1 X184.452 Y143.031 E0.13093
G1 X183.532 Y143.697 E0.14518
G1 X180.161 Y146.058 E0.19679
G1 X179.008 Y146.622 E0.21288
G1 X175.47 Y148.272 E0.26184
G1 X174.209 Y148.635 E0.27829
G1 X170.277 Y149.681 E0.32932
G1 X169.098 Y149.802 E0.34418
G1 X165.064 Y150.15 E0.39496
G1 X163.882 Y150.064 E0.40982
G1 X159.875 Y149.707 E0.46027
G1 X158.768 Y149.43 E0.47458
G1 X154.751 Y148.353 E0.52673
G1 X153.613 Y147.844 E0.54236
G1 X149.997 Y146.151 E0.59243
G1 X148.992 Y145.47 E0.60766
G1 X146.466 Y143.701 E0.64633
G1 X145.62 Y143.086 E0.65945
G1 X144.832 Y142.316 E0.67326
G1 X141.998 Y139.485 E0.7235
G1 X141.204 Y138.402 E0.74034
G1 X138.957 Y135.186 E0.78954
G1 X138.42 Y134.082 E0.80493
G1 X137.087 Y131.228 E0.84443
G1 X136.664 Y130.278 E0.85747
G1 X136.361 Y129.214 E0.87135
G1 X135.562 Y126.228 E0.91011
G1 X135.325 Y125.293 E0.92221
G1 X135.198 Y124.099 E0.93726
G1 X134.852 Y120.083 E0.98781
G1 X134.937 Y118.877 E1.00297
G1 X135.292 Y114.849 E1.05368
G1 X135.595 Y113.648 E1.06922
G1 X136.631 Y109.797 E1.11923
G1 X137.151 Y108.635 E1.13519
G1 X138.479 Y105.79 E1.17456
G1 X138.889 Y104.942 E1.18637
G1 X139.536 Y103.977 E1.20094
G1 X141.814 Y100.726 E1.25073
G1 X142.69 Y99.816 E1.26657
G1 X145.54 Y96.974 E1.31704
G1 X146.477 Y96.295 E1.33155
G1 X149.838 Y93.941 E1.38301
G1 X150.991 Y93.377 E1.3991
G1 X154.529 Y91.727 E1.44806
G1 X155.79 Y91.364 E1.46451
G1 X159.723 Y90.319 E1.51555
G1 X160.928 Y90.194 E1.53074
G1 X164.867 Y89.852 E1.58032
G1 X166.145 Y89.938 E1.59638
G1 X170.126 Y90.292 E1.64651
G1 X171.284 Y90.583 E1.66148
G1 X175.252 Y91.648 E1.713
G1 X176.378 Y92.151 E1.72847
G1 X179.999 Y93.847 E1.77861
G1 X181.007 Y94.529 E1.79387
G1 X183.533 Y96.298 E1.83254
G1 X184.377 Y96.912 E1.84563
G1 X185.166 Y97.681 E1.85945
G1 X187.996 Y100.507 E1.9096
G1 X188.795 Y101.597 E1.92655
G1 X191.043 Y104.815 E1.97578
G1 X191.583 Y105.927 E1.99128
G1 X193.308 Y109.628 E2.04248
G1 X193.655 Y110.85 E2.05841
G1 X194.437 Y113.768 E2.0963
G1 X194.673 Y114.699 E2.10834
G1 X194.804 Y115.934 E2.12392
G1 X195.07 Y119.012 E2.16266
G1 X195.141 Y120.046 E2.17566
G1 X195.063 Y121.109 E2.18902
G1 X194.704 Y125.159 E2.24001
G1 X194.412 Y126.323 E2.25506
G1 X193.371 Y130.195 E2.30534
G1 X192.854 Y131.354 E2.32126
G1 X191.122 Y135.05 E2.37244
G0 F9000 X190.791 Y134.825
G1 F2700 X190.15 Y135.768 E2.38674
G1 X187.863 Y139.035 E2.43675
G1 X187.029 Y139.897 E2.45179
G1 X184.217 Y142.707 E2.50164
G1 X183.302 Y143.37 E2.51581
G1 X179.985 Y145.699 E2.56664
G1 X178.839 Y146.259 E2.58264
G1 X175.301 Y147.909 E2.63159
G1 X174.106 Y148.249 E2.64717
G1 X170.236 Y149.283 E2.69741
G1 X169.063 Y149.404 E2.71219
G1 X165.093 Y149.751 E2.76217
G1 X163.917 Y149.666 E2.77695
G1 X159.972 Y149.319 E2.82662
G1 X158.871 Y149.044 E2.84085
G1 X154.914 Y147.988 E2.89221
G1 X153.782 Y147.482 E2.90776
G1 X150.221 Y145.82 E2.95704
G1 X149.221 Y145.142 E2.97219
G1 X146.7 Y143.377 E3.01078
G1 X145.9 Y142.8 E3.02315
G1 X145.115 Y142.033 E3.03691
G1 X142.281 Y139.202 E3.08715
G1 X141.532 Y138.173 E3.10311
G1 X139.317 Y135.011 E3.15152
G1 X138.782 Y133.913 E3.16684
G1 X137.452 Y131.064 E3.20627
G1 X137.049 Y130.168 E3.21859
G1 X136.747 Y129.111 E3.23237
G1 X135.95 Y126.13 E3.27107
G1 X135.713 Y125.195 E3.28316
G1 X135.596 Y124.064 E3.29742
G1 X135.251 Y120.111 E3.34718
G1 X135.335 Y118.912 E3.36226
G1 X135.68 Y114.947 E3.41217
G1 X135.981 Y113.751 E3.42763
G1 X136.996 Y109.96 E3.47685
G1 X137.513 Y108.804 E3.49273
G1 X138.839 Y105.964 E3.53203
G1 X139.249 Y105.116 E3.54385
G1 X139.864 Y104.207 E3.55761
G1 X142.142 Y100.956 E3.60739
G1 X142.973 Y100.099 E3.62236
G1 X145.775 Y97.298 E3.67204
G1 X146.707 Y96.622 E3.68648
G1 X150.014 Y94.3 E3.73715
G1 X151.16 Y93.74 E3.75315
G1 X154.698 Y92.09 E3.80211
G1 X155.893 Y91.75 E3.81769
G1 X159.764 Y90.717 E3.86793
G1 X160.963 Y90.593 E3.88304
G1 X164.902 Y90.251 E3.93263
G1 X166.11 Y90.336 E3.94781
G1 X170.029 Y90.68 E3.99715
G1 X171.181 Y90.969 E4.01204
G1 X175.089 Y92.013 E4.06277
G1 X176.209 Y92.513 E4.07815
G1 X179.775 Y94.178 E4.1275
G1 X180.778 Y94.857 E4.14269
G1 X183.299 Y96.622 E4.18128
G1 X184.098 Y97.198 E4.19364
G1 X184.883 Y97.964 E4.20739
G1 X187.713 Y100.79 E4.25754
G1 X188.467 Y101.826 E4.27361
G1 X190.683 Y104.99 E4.32205
G1 X191.221 Y106.096 E4.33748
G1 X192.923 Y109.738 E4.38789
G1 X193.269 Y110.953 E4.40373
G1 X194.049 Y113.866 E4.44155
G1 X194.285 Y114.797 E4.4536
G1 X194.405 Y115.969 E4.46837
G1 X194.671 Y119.041 E4.50704
G1 X194.691 Y119.304 E4.51035
G1 F2580 X194.742 Y120.017 E4.51931
G1 X194.665 Y121.074 E4.5326
G1 X194.316 Y125.062 E4.5828
G1 X194.026 Y126.22 E4.59777
G1 X193.605 Y127.792 E4.61818
G1 F2280 X193.006 Y130.032 E4.64726
G1 X192.492 Y131.185 E4.66309
G1 X190.791 Y134.825 E4.71347
G1 F2700 E-1.78653
G1 F600 Z2.2
;MESH:?????? 6 ??????.stl
G0 F9000 X164.977 Y137.666 Z2.2
;TYPE:WALL-OUTER
G1 F600 Z0.2
G1 F2700 E4.71347
G1 F1800 X161.568 Y137.331 E4.76072
G1 X158.22 Y136.314 E4.80899
G1 X155.2 Y134.7 E4.85623
G1 X152.51 Y132.496 E4.9042
G1 X150.282 Y129.774 E4.95272
G1 X148.681 Y126.774 E4.99963
G1 X147.672 Y123.458 E5.04744
G1 X147.332 Y119.978 E5.09568
G1 X147.665 Y116.575 E5.14284
G1 X148.682 Y113.224 E5.19115
G1 X150.293 Y110.209 E5.2383
G1 X152.503 Y107.511 E5.28641
G1 X155.218 Y105.288 E5.33482
G1 X158.244 Y103.674 E5.38213
G1 X161.548 Y102.672 E5.42975
G1 X165.028 Y102.334 E5.47798
G1 X168.422 Y102.667 E5.52503
G1 X171.773 Y103.685 E5.57334
G1 X174.792 Y105.298 E5.62055
G1 X177.484 Y107.504 E5.66856
G1 X179.708 Y110.224 E5.71703
G1 X181.325 Y113.261 E5.76449
G1 X182.322 Y116.555 E5.81197
G1 X182.66 Y119.996 E5.85966
G1 X182.325 Y123.42 E5.90712
G1 X181.324 Y126.737 E5.95491
G1 X179.688 Y129.811 E6.00295
G1 X177.493 Y132.486 E6.05068
G1 X174.778 Y134.709 E6.09909
G1 X171.753 Y136.323 E6.14638
G1 X168.442 Y137.328 E6.19411
G1 X164.977 Y137.666 E6.24214
G0 F9000 X164.181 Y137.588
G1 F2700 E-0.25786
G0 F9000 X164.152 Y137.884
G0 X165.001 Y138.169
G0 X164.344 Y145.692
G0 X165 Y146.254
M205 X50 Y50
G1 F2700 E6.24214
G1 F1800 X169.565 Y145.851 E6.30535
G1 X173.981 Y144.671 E6.36841
G1 X178.146 Y142.721 E6.43185
G1 X181.892 Y140.092 E6.49498
G1 X185.109 Y136.877 E6.55771
G1 X187.746 Y133.103 E6.62122
G1 X189.675 Y128.968 E6.68416
G1 X190.855 Y124.563 E6.74707
G1 X191.251 Y120.01 E6.81011
G1 X190.85 Y115.426 E6.87359
G1 X189.666 Y111.014 E6.9366
G1 X187.746 Y106.896 E6.99928
G1 X185.111 Y103.125 E7.06274
G1 X181.874 Y99.891 E7.12586
G1 X178.154 Y97.283 E7.18853
G1 X173.977 Y95.327 E7.25215
G1 X169.55 Y94.143 E7.31537
G1 X165 Y93.746 E7.37837
G1 X160.434 Y94.148 E7.4416
G1 X156.02 Y95.328 E7.50463
G1 X151.853 Y97.278 E7.56809
G1 X148.107 Y99.907 E7.63122
G1 X144.89 Y103.122 E7.69396
G1 X142.253 Y106.896 E7.75747
G1 X140.324 Y111.031 E7.82041
G1 X139.144 Y115.432 E7.88326
G1 X138.749 Y119.989 E7.94636
G1 X139.149 Y124.571 E8.00981
G1 X140.333 Y128.985 E8.07285
G1 X142.253 Y133.103 E8.13552
G1 X144.886 Y136.872 E8.19894
G1 X148.125 Y140.108 E8.2621
G1 X151.845 Y142.716 E8.32477
G1 X156.02 Y144.672 E8.38837
G1 X160.449 Y145.856 E8.45161
G1 X165 Y146.254 E8.51463
M204 S3500
G0 F9000 X165.797 Y146.184
G0 X165 Y145.852
;TYPE:WALL-INNER
G1 F2400 X169.495 Y145.455 E8.56839
G1 X172.864 Y144.556 E8.60993
G1 F2700 X173.843 Y144.294 E8.622
G1 X177.945 Y142.373 E8.67596
G1 X181.634 Y139.784 E8.72966
G1 X184.801 Y136.619 E8.783
G1 X187.398 Y132.903 E8.83701
G1 X189.297 Y128.83 E8.89054
G1 X190.459 Y124.493 E8.94404
G1 X190.849 Y120.01 E8.99764
G1 X190.454 Y115.496 E9.05163
G1 X189.289 Y111.152 E9.10521
G1 X187.398 Y107.096 E9.15852
G1 X184.803 Y103.383 E9.21249
G1 X181.616 Y100.199 E9.26616
G1 X177.953 Y97.631 E9.31945
G1 X173.839 Y95.704 E9.37357
G1 X169.48 Y94.539 E9.42733
G1 X165 Y94.148 E9.4809
G1 X160.504 Y94.544 E9.53467
G1 X156.158 Y95.705 E9.58826
G1 X152.054 Y97.626 E9.64225
G1 X148.365 Y100.215 E9.69594
G1 X145.198 Y103.38 E9.74928
G1 X142.601 Y107.096 E9.80329
G1 X140.702 Y111.169 E9.85683
G1 X139.54 Y115.502 E9.91027
G1 X139.151 Y119.989 E9.96393
G1 X139.545 Y124.501 E10.01788
G1 X140.71 Y128.847 E10.07149
G1 X142.601 Y132.903 E10.1248
G1 X145.194 Y136.614 E10.17873
G1 X148.383 Y139.8 E10.23244
G1 X152.046 Y142.368 E10.28573
G1 X156.158 Y144.295 E10.33983
G1 X160.519 Y145.46 E10.39361
G1 X165 Y145.852 E10.4472
G1 F2700 E3.9472
G0 F9000 X165.001 Y138.169
G0 X164.995 Y138.069
M205 X30 Y30
G1 F2700 E10.4472
G1 X161.473 Y137.724 E10.48936
G1 X158.089 Y136.697 E10.53149
G1 X154.95 Y135.015 E10.57391
G1 X152.227 Y132.779 E10.61589
G1 X149.967 Y130.023 E10.65835
G1 X148.303 Y126.913 E10.70037
G1 X147.273 Y123.521 E10.7426
G1 X146.929 Y119.995 E10.78481
G1 X147.272 Y116.48 E10.82688
G1 X148.301 Y113.089 E10.8691
G1 X149.978 Y109.96 E10.91139
G1 X152.22 Y107.228 E10.9535
G1 X154.968 Y104.973 E10.99585
G1 X158.102 Y103.297 E11.03819
G1 X161.486 Y102.273 E11.08031
G1 X165.007 Y101.934 E11.12245
G1 X168.516 Y102.274 E11.16445
G1 X171.904 Y103.302 E11.20663
G1 X175.042 Y104.983 E11.24904
G1 X177.767 Y107.221 E11.29105
G1 X180.036 Y109.995 E11.33374
G1 X181.688 Y113.092 E11.37556
G1 X182.72 Y116.49 E11.41786
G1 X183.06 Y119.998 E11.45985
G1 X182.717 Y123.519 E11.502
G1 X181.687 Y126.906 E11.54417
G1 X180.016 Y130.04 E11.58648
G1 X177.778 Y132.771 E11.62855
G1 X175.028 Y135.024 E11.6709
G1 X171.895 Y136.7 E11.71323
G1 X168.504 Y137.727 E11.75544
G1 X164.995 Y138.069 E11.79744
M204 S1500
G0 F9000 X164.981 Y138.388
;TYPE:SKIN
G1 F2700 X161.43 Y138.041 E11.83782
G1 X157.95 Y136.986 E11.87898
G1 X154.786 Y135.29 E11.91961
G1 X151.998 Y133.008 E11.96038
G1 X149.691 Y130.185 E12.00165
G1 X148.011 Y127.048 E12.04192
G1 X146.962 Y123.597 E12.08274
G1 X146.614 Y119.975 E12.12392
G1 X146.955 Y116.435 E12.16417
G1 X148.012 Y112.951 E12.20538
G1 X149.703 Y109.796 E12.24589
G1 X151.991 Y106.999 E12.28679
G1 X154.806 Y104.698 E12.32794
G1 X157.971 Y103.004 E12.36857
G1 X161.409 Y101.962 E12.40923
G1 X165.026 Y101.616 E12.45035
G1 X168.565 Y101.957 E12.49059
G1 X172.048 Y103.015 E12.53178
G1 X175.206 Y104.708 E12.57234
G1 X177.993 Y106.993 E12.61313
G1 X180.3 Y109.813 E12.65436
G1 X181.997 Y112.991 E12.69514
G1 X183.031 Y116.412 E12.73558
G1 X183.383 Y119.996 E12.77634
G1 X183.034 Y123.564 E12.81692
G1 X181.989 Y127.022 E12.8578
G1 X180.28 Y130.222 E12.89886
G1 X178.002 Y132.996 E12.93948
G1 X175.192 Y135.299 E12.9806
G1 X172.029 Y136.993 E13.02121
G1 X168.585 Y138.037 E13.06194
G1 X164.981 Y138.388 E13.10292
G1 F2700 E6.60292
G0 F9000 X165.001 Y138.089
G0 X164.344 Y145.692
G0 X164.999 Y145.53
G1 F2700 E13.10292
G1 X169.445 Y145.138 E13.15344
G1 X173.729 Y143.994 E13.20362
G1 X177.782 Y142.094 E13.25428
G1 X181.427 Y139.537 E13.30467
G1 X184.554 Y136.412 E13.35471
G1 X187.12 Y132.74 E13.40541
G1 X188.998 Y128.713 E13.45569
G1 X190.142 Y124.443 E13.50573
G1 X190.527 Y120.011 E13.55607
G1 X190.137 Y115.544 E13.60682
G1 X188.989 Y111.269 E13.65692
G1 X187.12 Y107.259 E13.70699
G1 X184.556 Y103.59 E13.75765
G1 X181.409 Y100.446 E13.808
G1 X177.79 Y97.91 E13.85801
G1 X173.722 Y96.004 E13.90885
G1 X169.43 Y94.857 E13.95913
G1 X165.001 Y94.47 E14.00945
G1 X160.554 Y94.861 E14.05997
G1 X156.274 Y96.005 E14.11011
G1 X152.217 Y97.905 E14.16082
G1 X148.572 Y100.462 E14.21121
G1 X145.445 Y103.587 E14.26124
G1 X142.879 Y107.259 E14.31194
G1 X141.001 Y111.286 E14.36223
G1 X139.858 Y115.55 E14.41219
G1 X139.472 Y119.988 E14.46261
G1 X139.863 Y124.451 E14.51331
G1 X141.01 Y128.73 E14.56345
G1 X142.879 Y132.74 E14.61352
G1 X145.441 Y136.407 E14.66415
G1 X148.59 Y139.553 E14.71453
G1 X152.209 Y142.089 E14.76454
G1 X156.273 Y143.995 E14.81535
G1 X160.569 Y145.143 E14.86567
G1 X164.999 Y145.53 E14.916
G1 F2700 E8.416
G0 F9000 X164.973 Y145.828
G0 X160.534 Y145.381
G0 X156.186 Y144.218
G0 X152.087 Y142.297
G0 X148.435 Y139.738
G0 X145.256 Y136.562
G0 X144.488 Y135.568
G0 X144.898 Y135.282
G1 F2700 E14.916
G1 X149.71 Y140.094 E14.99302
G0 F9000 X149.422 Y140.503
G0 X151.312 Y141.827
G0 X151.6 Y141.417
G1 F2700 X143.587 Y133.404 E15.12127
G0 F9000 X143.177 Y133.69
G0 X142.306 Y132.221
G0 X142.759 Y132.011
G1 F2700 X152.974 Y142.226 E15.28477
G0 F9000 X152.761 Y142.679
G0 X153.827 Y143.179
G0 X154.04 Y142.726
G1 F2700 X142.265 Y130.951 E15.47324
G0 F9000 X141.812 Y131.161
G0 X141.318 Y130.103
G0 X141.772 Y129.892
G1 F2700 X155.105 Y143.225 E15.68664
G0 F9000 X154.892 Y143.678
G0 X155.957 Y144.177
G0 X156.17 Y143.725
G1 F2700 X141.277 Y128.832 E15.92501
G0 F9000 X141.023 Y128.013
G1 F2700 X156.989 Y143.978 E16.18055
G0 F9000 X157.761 Y144.185
G1 F2700 X140.816 Y127.24 E16.45176
G0 F9000 X140.609 Y126.467
G1 F2700 X158.533 Y144.391 E16.73865
G0 F9000 X159.305 Y144.597
G1 F2700 X140.402 Y125.694 E17.0412
G0 F9000 X140.195 Y124.921
G1 F2700 X160.077 Y144.804 E17.35944
G0 F9000 X160.801 Y144.961
G1 F2700 X140.041 Y124.201 E17.69171
G0 F9000 X139.986 Y123.581
G1 F2700 X161.421 Y145.016 E18.03479
G0 F9000 X162.041 Y145.07
G1 F2700 X139.932 Y122.962 E18.38865
G0 F9000 X139.878 Y122.342
G1 F2700 X162.66 Y145.124 E18.75329
G0 F9000 X163.28 Y145.178
G1 F2700 X139.824 Y121.722 E19.12872
G0 F9000 X139.769 Y121.101
G1 F2700 X163.9 Y145.233 E19.51496
G0 F9000 X164.52 Y145.287
G1 F2700 X154.71 Y135.476 E19.67198
G0 F9000 X154.947 Y135.035
G0 X156.165 Y135.688
G0 X155.928 Y136.129
G1 F2700 X165.117 Y145.318 E19.81906
G0 F9000 X165.637 Y145.272
G1 F2700 X157.146 Y136.782 E19.95496
G0 F9000 X157.383 Y136.341
G0 X158.346 Y136.796
G0 X158.201 Y137.271
G1 F2700 X166.157 Y145.227 E20.0823
G0 F9000 X166.677 Y145.181
G1 F2700 X159.014 Y137.518 E20.20495
G0 F9000 X159.828 Y137.767
G1 F2700 X167.196 Y145.135 E20.32288
G0 F9000 X167.716 Y145.089
G1 F2700 X160.641 Y138.014 E20.43612
G0 F9000 X161.429 Y138.236
G1 F2700 X168.236 Y145.043 E20.54507
G0 F9000 X168.756 Y144.997
G1 F2700 X162.058 Y138.299 E20.65227
G0 F9000 X162.686 Y138.361
G1 F2700 X169.276 Y144.951 E20.75775
G0 F9000 X169.741 Y144.851
G1 F2700 X163.314 Y138.423 E20.86063
G0 F9000 X163.942 Y138.486
G1 F2700 X170.187 Y144.732 E20.96059
G0 F9000 X170.634 Y144.612
G1 F2700 X164.569 Y138.548 E21.05765
G0 F9000 X165.162 Y138.575
G1 F2700 X171.08 Y144.493 E21.15238
G0 F9000 X171.527 Y144.374
G1 F2700 X165.676 Y138.523 E21.24603
G0 F9000 X166.191 Y138.472
G1 F2700 X171.973 Y144.254 E21.33857
G0 F9000 X172.42 Y144.135
G1 F2700 X166.706 Y138.421 E21.43003
G0 F9000 X167.22 Y138.37
G1 F2700 X172.866 Y144.016 E21.52039
G0 F9000 X173.312 Y143.896
G1 F2700 X167.735 Y138.319 E21.60966
G0 F9000 X168.25 Y138.269
G1 F2700 X173.745 Y143.764 E21.69761
G0 F9000 X174.13 Y143.583
G1 F2700 X168.744 Y138.197 E21.78381
G0 F9000 X169.178 Y138.065
