; generated by PrusaSlicer 2.9.1 on 2025-05-23 at 02:12:14 UTC

; 

; external perimeters extrusion width = 0.45mm
; perimeters extrusion width = 0.45mm
; infill extrusion width = 0.80mm
; solid infill extrusion width = 0.70mm
; top infill extrusion width = 0.45mm
; support material extrusion width = 0.60mm
; first layer extrusion width = 0.60mm

M190 S110 ; set bed temperature and wait for it to be reached
M104 S250 ; set temperature
;TYPE:Custom
G28 ;Home

;G92 E0 ;Reset Extruder
;G1 Z2.0 F3000 ;Move Z Axis up
;G1 X10.1 Y20 Z0.28 F5000.0 ;Move to start position
;G1 X10.1 Y200.0 Z0.28 F1500.0 E15 ;Draw the first line
;G1 X10.4 Y200.0 Z0.28 F5000.0 ;Move to side a little
;G1 X10.4 Y20 Z0.28 F1500.0 E30 ;Draw the second line
G92 E0 ;Reset Extruder

G1 Z2.0 F3000 ;Move Z Axis up
M109 S250 ; set temperature and wait for it to be reached
G21 ; set units to millimeters
G90 ; use absolute coordinates
M83 ; use relative distances for extrusion
; Filament gcode
; SET_PRESSURE_ADVANCE ADVANCE=0.089
M107
;LAYER_CHANGE
;Z:0.3
;HEIGHT:0.3
G1 E-1 F3600
G1 Z.3 F4800
G1 X90.297 Y53.794
G1 Z.3
G1 E1 F2400
;TYPE:Support material
;WIDTH:0.6
G1 F1200
G1 X90.297 Y60.52 E.44933
G1 X91.678 Y60.665 E.09277
G1 X92.214 Y61.867 E.08792
G1 X92.883 Y62.197 E.04983
G1 X93.615 Y62.348 E.04993
G1 X94.709 Y62.756 E.078
G1 X95.325 Y63.087 E.04672
G1 X96.762 Y64.093 E.11719
G1 X97.44 Y65.461 E.102
G1 X97.782 Y66.596 E.07919
G1 X98.822 Y67.532 E.09347
G1 X100.616 Y67.297 E.12087
G1 X102.184 Y67.457 E.10529
G1 X102.958 Y67.714 E.05448
G1 X103.417 Y67.778 E.03096
G1 X105.078 Y68.858 E.13236
G1 X106.174 Y70.257 E.11873
G1 X106.625 Y72.112 E.12753
G1 X106.171 Y73.982 E.12856
G1 X107.388 Y74.532 E.08922
G1 X108.127 Y75.902 E.10399
G1 X108.228 Y76.826 E.0621
G1 X108.182 Y77.9 E.07181
G1 X107.869 Y79.299 E.09577
G1 X107.232 Y80.027 E.06462
G1 X106.332 Y81.256 E.10176
G1 X104.974 Y81.304 E.09078
G1 X103.574 Y81.865 E.10076
G1 X101.829 Y80.997 E.1302
G1 X100.952 Y80.098 E.0839
G1 X100.421 Y78.739 E.09747
G1 X97.758 Y76.34 E.23945
G1 X96.507 Y75.805 E.0909
G1 X95.404 Y75.699 E.07403
G1 X94.814 Y75.56 E.04049
G1 X93.601 Y75.069 E.08742
G1 X92.64 Y74.433 E.07699
G1 X92.18 Y74.014 E.04157
G1 X91.396 Y72.989 E.08621
G1 X91.061 Y72.32 E.04998
G1 X90.599 Y72.43 E.03173
G1 X90.599 Y75.603 E.21197
G1 X90.687 Y75.827 E.01608
G1 X90.683 Y78.218 E.15973
G1 X90.798 Y79.177 E.06453
G1 X90.704 Y79.642 E.03169
G1 X91.058 Y80.114 E.03942
G1 X90.509 Y82.452 E.16044
G1 X90.344 Y82.672 E.01837
G1 X90.657 Y84.337 E.11318
G1 X90.607 Y84.756 E.02819
G1 X90.761 Y85.831 E.07255
G1 X90.699 Y86.119 E.01968
G1 X90.804 Y86.87 E.05066
G1 X90.727 Y87.202 E.02277
G1 X90.814 Y87.833 E.04255
G1 X90.733 Y88.181 E.02387
G1 X90.786 Y88.564 E.02583
G1 X90.705 Y88.912 E.02387
G1 X90.786 Y89.499 E.03959
G1 X90.705 Y89.847 E.02387
G1 X90.791 Y90.471 E.04208
G1 X90.715 Y90.86 E.02648
G1 X90.848 Y91.717 E.05794
G1 X90.952 Y93.636 E.12839
G1 X91.386 Y96.127 E.16892
G1 X91.978 Y97.859 E.12228
G1 X92.336 Y98.392 E.04289
G1 X94.612 Y99.448 E.16762
G1 X94.199 Y101.808 E.16006
G1 X98.619 Y101.815 E.29528
G1 X99.04 Y101.643 E.03038
G1 X100.397 Y101.647 E.09066
G1 X100.397 Y98.164 E.23268
G1 X100.768 Y97.493 E.05122
G1 X100.876 Y97.022 E.03228
G1 X101.779 Y95.935 E.09441
G1 X102.636 Y95.508 E.06397
G1 X103.513 Y95.247 E.06113
G1 X107.796 Y95.222 E.28613
G1 X107.797 Y113.954 E1.2514
G1 X105.322 Y113.954 E.16534
G1 X104.646 Y114.314 E.05117
G1 X103.964 Y114.361 E.04567
G1 X100.397 Y114.361 E.23829
G1 X100.397 Y109.689 E.31211
G1 X89.003 Y109.707 E.76118
G1 X87.856 Y110.003 E.07914
G1 X86.921 Y110.005 E.06246
G1 X84.992 Y109.903 E.12905
G1 X84.683 Y109.714 E.0242
G1 X77.04 Y109.726 E.51059
G1 X76.637 Y109.891 E.02909
G1 X76.012 Y109.913 E.04178
G1 X73.778 Y109.734 E.14972
G1 X72.797 Y109.733 E.06554
G1 X72.797 Y113.954 E.28199
G1 X70.322 Y113.954 E.16534
G1 X69.646 Y114.314 E.05117
G1 X68.964 Y114.361 E.04567
G1 X65.397 Y114.361 E.23829
G1 X65.397 Y98.164 E1.08205
G1 X65.768 Y97.493 E.05122
G1 X65.876 Y97.022 E.03228
G1 X66.779 Y95.935 E.09441
G1 X67.968 Y95.383 E.08757
G1 X69.101 Y95.2 E.07667
G1 X72.796 Y95.222 E.24685
G1 X72.797 Y101.776 E.43784
G1 X78.488 Y101.783 E.38019
G1 X78.088 Y99.509 E.15425
G1 X80.29 Y98.41 E.16441
G1 X80.684 Y97.778 E.04975
G1 X81.296 Y95.847 E.13533
G1 X81.739 Y93.113 E.18503
G1 X81.817 Y91.55 E.10455
G1 X81.975 Y90.883 E.04579
G1 X81.9 Y90.494 E.02647
G1 X81.989 Y89.852 E.0433
G1 X81.907 Y89.503 E.02395
G1 X81.989 Y88.917 E.03953
G1 X81.907 Y88.569 E.02388
G1 X81.96 Y88.192 E.02543
G1 X81.878 Y87.846 E.02375
G1 X81.967 Y87.207 E.0431
G1 X81.889 Y86.875 E.02278
G1 X81.972 Y86.284 E.03987
G1 X81.931 Y85.841 E.02972
G1 X82.086 Y84.761 E.07289
G1 X82.035 Y84.344 E.02807
G1 X82.35 Y82.673 E.1136
G1 X82.185 Y82.453 E.01837
G1 X81.867 Y81.107 E.0924
G1 X82.052 Y79.946 E.07854
G1 X81.896 Y79.177 E.05242
G1 X82.01 Y78.225 E.06405
G1 X82.015 Y74.674 E.23723
G1 X82.397 Y74.292 E.03609
G1 X82.397 Y70.473 E.25513
G1 X79.984 Y70.473 E.1612
G1 X79.857 Y70.346 E.012
G1 X78.636 Y71.447 E.10983
G1 X78.184 Y72.597 E.08255
G1 X77.508 Y73.564 E.07882
G1 X76.793 Y74.089 E.05926
G1 X75.412 Y74.501 E.09628
G1 X75.235 Y74.493 E.01184
G1 X72.421 Y77.028 E.25302
G1 X72.641 Y78.852 E.12274
G1 X69.616 Y79.689 E.20968
G1 X68.309 Y79.696 E.08732
G1 X67.932 Y79.594 E.02609
G1 X66.53 Y79.544 E.09372
G1 X64.966 Y77.567 E.16841
G1 X64.83 Y76.823 E.05053
G1 X64.532 Y76.092 E.05274
G1 X64.408 Y75.205 E.05983
G1 X64.538 Y74.326 E.05936
G1 X64.905 Y73.538 E.05807
G1 X65.446 Y72.901 E.05583
G1 X66.109 Y72.443 E.05383
G1 X66.831 Y72.172 E.05152
G1 X67.708 Y72.091 E.05884
G1 X70.467 Y69.605 E.2481
G1 X70.467 Y69.108 E.0332
G1 X70.8 Y68.722 E.03406
G1 X71.192 Y67.926 E.05928
G1 X72.127 Y67.139 E.08164
G1 X72.986 Y66.832 E.06094
G1 X73.62 Y66.743 E.04277
G1 X75.156 Y65.36 E.13808
G1 X74.878 Y64.333 E.07108
G1 X74.836 Y63.23 E.07374
G1 X74.038 Y63.562 E.05774
G1 X72.08 Y63.789 E.13168
G1 X70.508 Y63.627 E.10557
G1 X69.736 Y63.371 E.05434
G1 X69.277 Y63.306 E.03097
G1 X67.615 Y62.226 E.13241
G1 X66.519 Y60.827 E.11873
G1 X66.068 Y58.972 E.12753
G1 X66.519 Y57.117 E.12753
G1 X67.615 Y55.717 E.11878
G1 X69.648 Y54.395 E.16201
G1 X70.26 Y54.399 E.04089
G1 X72.078 Y54.156 E.12253
G1 X73.645 Y54.316 E.10523
G1 X74.37 Y54.556 E.05102
G1 X74.84 Y54.612 E.03162
G1 X75.865 Y55.278 E.08166
G1 X76.699 Y55.304 E.05574
G1 X79.296 Y55.665 E.17516
G1 X80.878 Y57.492 E.16145
G1 X81.298 Y58.095 E.04909
G1 X81.588 Y58.674 E.04326
G1 X81.858 Y59.548 E.06111
G1 X82.397 Y59.493 E.0362
G1 X82.397 Y54.573 E.32868
G1 X83.68 Y53.291 E.12117
G1 X84.434 Y53.056 E.05276
G1 X84.776 Y52.781 E.02932
G1 X85.35 Y52.501 E.04267
G1 X86.252 Y52.213 E.06326
G1 X86.876 Y52.106 E.0423
G1 X88.609 Y52.106 E.11577
G1 X90.24 Y53.737 E.15409
G1 E-1 F3600
G1 X67.879 Y103.607 F4800
G1 E1 F2400
G1 F1200
G1 X70.314 Y103.607 E.16267
G1 X70.622 Y103.915 E.0291
G1 X70.622 Y106.245 E.15566
G1 X70.314 Y106.552 E.02905
G1 X67.879 Y106.552 E.16267
G1 X67.572 Y106.245 E.029
G1 X67.572 Y103.915 E.15566
G1 X67.823 Y103.664 E.02371
G1 X102.879 Y103.607 F4800
G1 F1200
G1 X105.314 Y103.607 E.16267
G1 X105.622 Y103.915 E.0291
G1 X105.622 Y106.245 E.15566
G1 X105.314 Y106.552 E.02905
G1 X102.879 Y106.552 E.16267
G1 X102.572 Y106.245 E.029
G1 X102.572 Y103.915 E.15566
G1 X102.823 Y103.664 E.02371
G1 E-.7 F3600
;WIPE_START
G1 F3840
G1 X102.585 Y103.902 E-.3
;WIPE_END
G1 X84.879 Y64.107 F4800
G1 E1 F2400
G1 F1200
G1 X87.814 Y64.107 E.19607
G1 X88.122 Y64.415 E.0291
G1 X88.122 Y66.745 E.15566
G1 X87.814 Y67.052 E.02905
G1 X84.879 Y67.052 E.19607
G1 X84.572 Y66.745 E.029
G1 X84.572 Y64.415 E.15566
G1 X84.823 Y64.164 E.02371
G1 E-1 F3600
G1 X107.251 Y113.713 F4800
G1 E1 F2400
G1 F1200
G1 X107.251 Y95.701 E1.2033
G1 X106.656 Y95.697 E.03975
G1 X106.656 Y113.472 E1.18747
G1 X106.061 Y113.472 E.03975
G1 X106.061 Y95.693 E1.18773
G1 X105.466 Y95.69 E.03975
G1 X105.466 Y103.125 E.4967
G1 X104.871 Y103.125 E.03975
G1 X104.871 Y95.686 E.49697
G1 X104.276 Y95.683 E.03975
G1 X104.276 Y103.125 E.49717
G1 X103.681 Y103.125 E.03975
G1 X103.681 Y95.729 E.49409
G1 X103.573 Y95.729 E.00721
G1 X103.086 Y95.857 E.03364
G1 X103.086 Y103.125 E.48554
G1 X102.68 Y103.125 E.02712
G1 X102.49 Y103.314 E.0179
G1 X102.49 Y96.129 E.48
G1 X102.082 Y96.324 E.03021
G1 X101.895 Y96.549 E.01954
G1 X101.895 Y113.879 E1.15774
G1 X101.3 Y113.879 E.03975
G1 X101.3 Y97.328 E1.1057
G1 X101.223 Y97.667 E.02322
G1 X100.879 Y98.289 E.04748
G1 X100.879 Y102.13 E.2566
G1 X100.705 Y102.13 E.01162
G1 X100.705 Y109.207 E.47278
G1 X100.11 Y109.208 E.03975
G1 X100.11 Y102.128 E.47298
G1 X99.515 Y102.126 E.03975
G1 X99.515 Y109.209 E.47318
G1 X98.92 Y109.21 E.03975
G1 X98.92 Y102.213 E.46744
G1 X98.713 Y102.297 E.01492
G1 X98.325 Y102.297 E.02592
G1 X98.325 Y109.211 E.46189
G1 X97.729 Y109.211 E.03982
G1 X97.729 Y102.296 E.46196
G1 X97.134 Y102.295 E.03975
G1 X97.134 Y109.212 E.46209
G1 X96.539 Y109.213 E.03975
G1 X96.539 Y102.294 E.46223
G1 X95.944 Y102.293 E.03975
G1 X95.944 Y109.214 E.46236
G1 X95.349 Y109.215 E.03975
G1 X95.349 Y102.292 E.46249
G1 X94.754 Y102.291 E.03975
G1 X94.754 Y109.216 E.46263
G1 X94.159 Y109.217 E.03975
G1 X94.159 Y102.29 E.46276
G1 X93.626 Y102.289 E.03561
G1 X94.074 Y99.729 E.17362
G1 X93.563 Y99.493 E.0376
G1 X93.563 Y109.218 E.64968
G1 X92.968 Y109.219 E.03975
G1 X92.968 Y99.217 E.66819
G1 X92.373 Y98.941 E.04382
G1 X92.373 Y109.22 E.68669
G1 X91.778 Y109.221 E.03975
G1 X91.778 Y98.426 E.72116
G1 X91.542 Y98.075 E.02826
G1 X91.183 Y97.023 E.07426
G1 X91.183 Y109.222 E.81496
G1 X90.588 Y109.223 E.03975
G1 X90.588 Y91.652 E1.17384
G1 E-1 F3600
G1 X107.251 Y79.638 F4800
G1 E1 F2400
G1 F1200
G1 X107.251 Y75.294 E.2902
G1 X107.041 Y74.904 E.02959
G1 X106.656 Y74.73 E.02822
G1 X106.656 Y79.997 E.35186
G1 X106.061 Y80.783 E.06586
G1 X106.061 Y74.461 E.42234
G1 X105.608 Y74.256 E.03322
G1 X106.061 Y72.393 E.12808
G1 X106.061 Y71.832 E.03748
G1 X105.73 Y70.472 E.09351
G1 X105.466 Y70.135 E.0286
G1 X105.466 Y80.804 E.71275
G1 X104.871 Y80.826 E.03978
G1 X104.871 Y69.375 E.76499
G1 X104.276 Y68.911 E.05041
G1 X104.276 Y81.064 E.81189
G1 X103.681 Y81.303 E.04284
G1 X103.681 Y68.524 E.85371
G1 X103.244 Y68.241 E.03478
G1 X103.086 Y68.218 E.01067
G1 X103.086 Y81.084 E.85952
G1 X102.49 Y80.788 E.04446
G1 X102.49 Y68.066 E.8499
G1 X101.895 Y67.912 E.04106
G1 X101.895 Y80.376 E.83266
G1 X101.3 Y79.688 E.06077
G1 X101.3 Y67.851 E.79078
G1 X100.705 Y67.79 E.03996
G1 X100.705 Y78.346 E.7052
G1 X100.11 Y77.81 E.0535
G1 X100.11 Y67.833 E.66652
G1 X99.515 Y67.894 E.03996
G1 X99.515 Y77.274 E.62663
G1 X98.92 Y76.738 E.0535
G1 X98.92 Y68.007 E.58328
G1 X98.707 Y68.078 E.015
G1 X98.325 Y67.733 E.03439
G1 X98.325 Y76.201 E.56571
G1 X98.006 Y75.915 E.02862
G1 X97.729 Y75.817 E.01963
G1 X97.729 Y67.197 E.57586
G1 X97.345 Y66.85 E.03458
G1 X97.134 Y66.024 E.05695
G1 X97.134 Y75.578 E.63826
G1 X96.539 Y75.324 E.04322
G1 X96.539 Y64.742 E.70693
G1 X96.382 Y64.415 E.02423
G1 X95.944 Y64.109 E.03569
G1 X95.944 Y75.288 E.74682
G1 X95.349 Y75.191 E.04027
G1 X95.349 Y63.692 E.7682
G1 X94.754 Y63.323 E.04677
G1 X94.754 Y75.031 E.78216
G1 X94.159 Y74.801 E.04262
G1 X94.159 Y63.044 E.78543
G1 X93.563 Y62.838 E.04213
G1 X93.563 Y74.489 E.77835
G1 X92.968 Y74.076 E.04839
G1 X92.968 Y62.698 E.76011
G1 X92.373 Y62.483 E.04226
G1 X92.373 Y73.5 E.736
G1 X92.274 Y73.386 E.01009
G1 X91.778 Y72.675 E.05791
G1 X91.778 Y62.072 E.70834
G1 X91.351 Y61.115 E.07001
G1 X91.183 Y61.098 E.01128
G1 X91.183 Y71.796 E.71468
G1 X90.588 Y71.937 E.04085
G1 X90.588 Y61.035 E.72831
G1 X89.993 Y60.972 E.03997
G1 X89.993 Y109.224 E3.22349
G1 X89.398 Y109.225 E.03975
G1 X89.398 Y53.577 E3.71759
G1 X88.802 Y52.981 E.05631
G1 X88.802 Y109.268 E3.76028
G1 X88.207 Y109.44 E.04138
G1 X88.207 Y67.341 E2.81244
G1 X88.014 Y67.534 E.01823
G1 X87.612 Y67.534 E.02686
G1 X87.612 Y109.519 E2.80483
G1 X87.017 Y109.52 E.03975
G1 X87.017 Y67.534 E2.80489
G1 X86.422 Y67.534 E.03975
G1 X86.422 Y109.511 E2.80429
G1 X85.827 Y109.479 E.03981
G1 X85.827 Y67.534 E2.80215
G1 X85.232 Y67.534 E.03975
G1 X85.232 Y109.436 E2.79928
G1 X84.818 Y109.232 E.03083
G1 X84.636 Y109.232 E.01216
G1 X84.636 Y67.491 E2.78852
G1 X84.09 Y66.944 E.05163
G1 X84.09 Y64.215 E.18231
G1 X84.636 Y63.668 E.05163
G1 X84.636 Y53.498 E.67941
G1 X84.041 Y53.683 E.04163
G1 X84.041 Y109.233 E3.71104
G1 X83.446 Y109.234 E.03975
G1 X83.446 Y54.206 E3.67617
G1 X82.879 Y54.773 E.05357
G1 X82.851 Y109.235 E3.63836
G1 X82.256 Y109.236 E.03975
G1 X82.256 Y92.423 E1.1232
G1 X82.219 Y93.163 E.0495
G1 X81.661 Y96.292 E.21233
G1 X81.661 Y109.237 E.8648
G1 X81.066 Y109.238 E.03975
G1 X81.066 Y98.076 E.74568
G1 X80.627 Y98.781 E.05548
G1 X80.471 Y98.859 E.01165
G1 X80.471 Y109.239 E.69344
G1 X79.875 Y109.24 E.03982
G1 X79.875 Y99.156 E.67367
G1 X79.28 Y99.453 E.04443
G1 X79.28 Y109.241 E.65389
G1 X78.685 Y109.242 E.03975
G1 X78.685 Y102.266 E.46603
G1 X78.09 Y102.265 E.03975
G1 X78.09 Y109.242 E.4661
G1 X77.495 Y109.243 E.03975
G1 X77.495 Y102.264 E.46623
G1 X76.9 Y102.263 E.03975
G1 X76.9 Y109.263 E.46764
G1 X76.546 Y109.407 E.02553
G1 X76.305 Y109.402 E.0161
G1 X76.305 Y102.262 E.47699
G1 X75.709 Y102.261 E.03982
G1 X75.709 Y109.412 E.47773
G1 X75.114 Y109.377 E.03982
G1 X75.114 Y102.26 E.47545
G1 X74.519 Y102.259 E.03975
G1 X74.519 Y109.334 E.47265
G1 X73.924 Y109.262 E.04004
G1 X73.924 Y102.259 E.46784
G1 X73.329 Y102.258 E.03975
G1 X73.329 Y109.252 E.46724
G1 X72.734 Y109.251 E.03975
G1 X72.734 Y102.258 E.46717
G1 X72.315 Y102.258 E.02799
G1 X72.314 Y95.701 E.43804
G1 X72.139 Y95.7 E.01169
G1 X72.139 Y113.472 E1.18727
G1 X71.544 Y113.472 E.03975
G1 X71.544 Y95.696 E1.18753
G1 X70.948 Y95.693 E.03982
G1 X70.948 Y113.472 E1.18773
G1 X70.353 Y113.472 E.03975
G1 X70.353 Y107.034 E.43009
G1 X69.758 Y107.034 E.03975
G1 X69.758 Y113.708 E.44586
G1 X69.526 Y113.832 E.01757
G1 X69.163 Y113.832 E.02425
G1 X69.163 Y107.034 E.45414
G1 X68.568 Y107.034 E.03975
G1 X68.568 Y113.879 E.45728
G1 X67.973 Y113.879 E.03975
G1 X67.973 Y107.034 E.45728
G1 X67.68 Y107.034 E.01957
G1 X67.378 Y106.732 E.02853
G1 X67.378 Y113.879 E.47746
G1 X66.783 Y113.879 E.03975
G1 X66.783 Y96.685 E1.14865
G1 X67.082 Y96.324 E.03131
G1 X67.378 Y96.183 E.0219
G1 X67.378 Y103.427 E.48394
G1 X67.68 Y103.125 E.02853
G1 X67.973 Y103.125 E.01957
G1 X67.973 Y95.901 E.4826
G1 X68.568 Y95.73 E.04136
G1 X68.568 Y103.125 E.49403
G1 X69.163 Y103.125 E.03975
G1 X69.163 Y95.682 E.49723
G1 X69.758 Y95.686 E.03975
G1 X69.758 Y103.125 E.49697
G1 X70.353 Y103.125 E.03975
G1 X70.353 Y95.448 E.51287
G1 E-1 F3600
G1 X105.466 Y113.713 F4800
G1 E1 F2400
G1 F1200
G1 X105.466 Y107.034 E.44619
G1 X104.871 Y107.034 E.03975
G1 X104.871 Y113.648 E.44185
G1 X104.526 Y113.832 E.02612
G1 X104.276 Y113.832 E.0167
G1 X104.276 Y107.034 E.45414
G1 X103.681 Y107.034 E.03975
G1 X103.681 Y113.879 E.45728
G1 X103.086 Y113.879 E.03975
G1 X103.086 Y107.034 E.45728
G1 X102.68 Y107.034 E.02712
G1 X102.49 Y106.845 E.0179
G1 X102.49 Y114.12 E.48601
G1 E-1 F3600
G1 X88.207 Y64.159 F4800
G1 E1 F2400
G1 F1200
G1 X88.207 Y52.588 E.77301
G1 X87.612 Y52.588 E.03975
G1 X87.612 Y63.625 E.73733
G1 X87.017 Y63.625 E.03975
G1 X87.017 Y52.588 E.73733
G1 X86.422 Y52.695 E.04039
G1 X86.422 Y63.625 E.73018
G1 X85.827 Y63.625 E.03975
G1 X85.827 Y52.848 E.71996
G1 X85.232 Y53.095 E.04304
G1 X85.232 Y63.866 E.71956
G1 E-1 F3600
G1 X82.256 Y70.232 F4800
G1 E1 F2400
G1 F1200
G1 X82.256 Y59.992 E.68409
G1 X81.661 Y60.053 E.03996
G1 X81.661 Y69.991 E.66391
G1 X81.066 Y69.991 E.03975
G1 X81.066 Y58.708 E.75377
G1 X80.471 Y57.757 E.07494
G1 X80.471 Y69.991 E.8173
G1 X80.184 Y69.991 E.01917
G1 X79.875 Y69.682 E.02919
G1 X79.875 Y57.07 E.84255
G1 X79.28 Y56.383 E.06072
G1 X79.28 Y70.217 E.92419
G1 X78.685 Y70.754 E.05354
G1 X78.685 Y56.067 E.98117
G1 X78.09 Y55.984 E.04013
G1 X78.09 Y71.525 E1.03822
G1 X77.983 Y71.896 E.0258
G1 X77.495 Y72.791 E.0681
G1 X77.495 Y55.901 E1.12834
G1 X76.9 Y55.818 E.04013
G1 X76.9 Y73.412 E1.17537
G1 X76.305 Y73.75 E.04572
G1 X76.305 Y55.767 E1.20136
G1 X75.709 Y55.752 E.03983
G1 X75.709 Y73.925 E1.21405
G1 X75.114 Y74.005 E.04011
G1 X75.114 Y66.046 E.5317
G1 X74.519 Y66.582 E.0535
