; HEADER_BLOCK_START
; generated by OrcaSlicer 2.2.0 on 2025-05-22 at 17:21:37
; total layer number: 347
; filament_density: 1.24
; filament_diameter: 1.75
; max_z_height: 104.00
; HEADER_BLOCK_END

; THUMBNAIL_BLOCK_START

;
; THUMBNAIL_BLOCK_END

; THUMBNAIL_BLOCK_START

;
; THUMBNAIL_BLOCK_END

; external perimeters extrusion width = 0.40mm
; perimeters extrusion width = 0.45mm
; infill extrusion width = 0.45mm
; solid infill extrusion width = 0.40mm
; top infill extrusion width = 0.40mm
; support material extrusion width = 0.40mm
; first layer extrusion width = 0.50mm

; EXECUTABLE_BLOCK_START
M73 P0 R116
;TYPE:Custom
G28 ;Home

;G92 E0 ;Reset Extruder
;G1 Z2.0 F3000 ;Move Z Axis up
;G1 X10.1 Y20 Z0.28 F5000.0 ;Move to start position
;G1 X10.1 Y200.0 Z0.28 F1500.0 E15 ;Draw the first line
;G1 X10.4 Y200.0 Z0.28 F5000.0 ;Move to side a little
;G1 X10.4 Y20 Z0.28 F1500.0 E30 ;Draw the second line
G92 E0 ;Reset Extruder

G1 Z2.0 F3000 ;Move Z Axis up
G90
G21
M83 ; use relative distances for extrusion
; filament start gcode
M106 S0
;LAYER_CHANGE
;Z:0.2
;HEIGHT:0.2
G1 E-1 F3600
;_SET_FAN_SPEED_CHANGING_LAYER
SET_VELOCITY_LIMIT ACCEL=500 ACCEL_TO_DECEL=250
G1 X83.299 Y86.423 F9000
G1 Z.6
G1 Z.2
G1 E1 F2400
;TYPE:Skirt
;WIDTH:0.5
G1 F3000
G1 X84.875 Y84.875 E.08228
G1 X88.063 Y82.685 E.14406
G1 X91.583 Y81.08 E.14409
G1 X95.328 Y80.112 E.14407
G1 X98.796 Y79.808 E.12968
G1 X101.419 Y80.004 E.09795
G1 X103.036 Y80.179 E.06058
G1 X106.398 Y81.08 E.12965
G1 X109.918 Y82.685 E.14409
G1 X113.404 Y85.125 E.15848
G1 X116.115 Y87.884 E.1441
G1 X118.306 Y91.072 E.14406
G1 X119.777 Y94.227 E.12967
G1 X120.811 Y97.955 E.14406
G1 X121.182 Y101.806 E.1441
G1 X120.879 Y105.663 E.1441
G1 X119.91 Y109.408 E.14407
G1 X118.112 Y113.264 E.15849
G1 X115.866 Y116.413 E.14408
G1 X113.106 Y119.125 E.1441
G1 X109.918 Y121.315 E.14406
G1 X106.763 Y122.787 E.12967
G1 X103.036 Y123.821 E.14406
G1 X99.185 Y124.192 E.1441
G1 X95.328 Y123.888 E.1441
G1 X91.583 Y122.92 E.14407
G1 X87.726 Y121.121 E.15849
G1 X84.577 Y118.875 E.14408
G1 X81.866 Y116.116 E.1441
G1 X79.675 Y112.928 E.14406
G1 X78.204 Y109.773 E.12967
G1 X77.17 Y106.045 E.14406
G1 X76.799 Y102.194 E.1441
G1 X77.102 Y98.337 E.1441
G1 X78.071 Y94.592 E.14407
G1 X79.869 Y90.736 E.15849
G1 X82.115 Y87.587 E.14408
G1 X83.271 Y86.451 E.06032
; printing object 8-2.stl id:9430540301969130088 copy 0
G1 E-.7 F3600
;WIPE_START
G1 F3000
G1 X83.984 Y85.751 E-.3
;WIPE_END
G1 X91.508 Y84.47 Z.6 F9000
G1 X98.991 Y83.197 Z.6
G1 Z.2
G1 E1 F2400
;TYPE:Inner wall
;WIDTH:0.499999
G1 F3000
G1 X102.256 Y83.483 E.12209
G1 X105.421 Y84.331 E.12206
G1 X108.392 Y85.716 E.12209
G1 X111.077 Y87.596 E.12206
G1 X113.395 Y89.914 E.12208
G1 X115.274 Y92.598 E.12206
G1 X116.66 Y95.569 E.12209
G1 X117.508 Y98.734 E.12206
G1 X117.794 Y102 E.12209
G1 X117.508 Y105.266 E.12209
G1 X116.66 Y108.431 E.12206
G1 X115.274 Y111.402 E.12209
G1 X113.395 Y114.086 E.12206
G1 X111.077 Y116.404 E.12208
G1 X108.392 Y118.284 E.12206
G1 X105.421 Y119.669 E.12209
G1 X102.256 Y120.517 E.12206
G1 X98.99 Y120.803 E.12209
G1 X95.725 Y120.517 E.12209
G1 X92.56 Y119.669 E.12206
G1 X89.589 Y118.284 E.12209
G1 X86.904 Y116.404 E.12206
G1 X84.586 Y114.086 E.12208
G1 X82.707 Y111.402 E.12206
G1 X81.321 Y108.431 E.12209
G1 X80.473 Y105.266 E.12206
G1 X80.187 Y102 E.12209
G1 X80.473 Y98.734 E.12209
G1 X81.321 Y95.569 E.12206
G1 X82.707 Y92.598 E.12209
G1 X84.586 Y89.914 E.12206
G1 X86.904 Y87.596 E.12208
G1 X89.589 Y85.716 E.12206
G1 X92.56 Y84.331 E.12209
G1 X95.725 Y83.483 E.12206
G1 X98.951 Y83.2 E.1206
G1 X98.991 Y82.738 F9000
G1 F3000
G1 X102.336 Y83.031 E.12507
G1 X105.578 Y83.9 E.12504
G1 X108.622 Y85.319 E.12507
G1 X111.372 Y87.244 E.12504
G1 X113.746 Y89.619 E.12506
G1 X115.672 Y92.369 E.12504
G1 X117.091 Y95.412 E.12507
G1 X117.96 Y98.655 E.12504
G1 X118.252 Y102 E.12507
G1 X117.96 Y105.345 E.12507
G1 X117.091 Y108.588 E.12504
G1 X115.672 Y111.631 E.12507
G1 X113.746 Y114.381 E.12504
G1 X111.372 Y116.756 E.12506
G1 X108.622 Y118.681 E.12504
G1 X105.578 Y120.1 E.12507
G1 X102.336 Y120.969 E.12504
G1 X98.99 Y121.262 E.12507
G1 X95.645 Y120.969 E.12507
G1 X92.403 Y120.1 E.12504
G1 X89.359 Y118.681 E.12507
G1 X86.609 Y116.756 E.12504
G1 X84.235 Y114.381 E.12506
G1 X82.309 Y111.631 E.12504
G1 X80.89 Y108.588 E.12507
G1 X80.021 Y105.345 E.12504
G1 X79.729 Y102 E.12507
G1 X80.021 Y98.655 E.12507
G1 X80.89 Y95.412 E.12504
G1 X82.309 Y92.369 E.12507
G1 X84.235 Y89.619 E.12504
G1 X86.609 Y87.244 E.12506
G1 X89.359 Y85.319 E.12504
G1 X92.403 Y83.9 E.12507
G1 X95.645 Y83.031 E.12504
G1 X98.951 Y82.742 E.12358
G1 X98.991 Y82.279 F9000
;TYPE:Outer wall
G1 F3000
G1 X102.415 Y82.579 E.12805
G1 X105.735 Y83.469 E.12802
G1 X108.851 Y84.922 E.12805
G1 X111.667 Y86.893 E.12802
G1 X114.098 Y89.324 E.12804
G1 X116.069 Y92.139 E.12802
G1 X117.522 Y95.255 E.12805
G1 X118.412 Y98.575 E.12802
G1 X118.711 Y102 E.12805
G1 X118.412 Y105.425 E.12805
G1 X117.522 Y108.745 E.12802
G1 X116.069 Y111.861 E.12805
G1 X114.098 Y114.676 E.12802
G1 X111.667 Y117.107 E.12804
G1 X108.851 Y119.078 E.12802
G1 X105.735 Y120.531 E.12805
G1 X102.415 Y121.421 E.12802
G1 X98.99 Y121.721 E.12805
G1 X95.566 Y121.421 E.12805
G1 X92.246 Y120.531 E.12802
G1 X89.13 Y119.078 E.12805
G1 X86.314 Y117.107 E.12802
G1 X83.883 Y114.676 E.12804
G1 X81.912 Y111.861 E.12802
G1 X80.459 Y108.745 E.12805
G1 X79.569 Y105.425 E.12802
G1 X79.27 Y102 E.12805
G1 X79.569 Y98.575 E.12805
G1 X80.459 Y95.255 E.12802
G1 X81.912 Y92.139 E.12805
G1 X83.883 Y89.324 E.12802
G1 X86.314 Y86.893 E.12804
G1 X89.13 Y84.922 E.12802
G1 X92.246 Y83.469 E.12805
G1 X95.566 Y82.579 E.12802
G1 X98.951 Y82.283 E.12656
G1 E-.7 F3600
;WIPE_START
G1 F3000
G1 X99.947 Y82.368 E-.3
;WIPE_END
G1 X106.876 Y85.569 Z.6 F9000
G1 X110.012 Y87.018 Z.6
G1 Z.2
G1 E1 F2400
;TYPE:Bottom surface
;WIDTH:0.502608
G1 F1200
G1 X113.135 Y90.141 E.16546
G1 X114.653 Y92.309 E.09913
G1 X108.682 Y86.337 E.31635
G1 X108.22 Y86.014 E.02109
G1 X107.261 Y85.567 E.03963
G1 X115.423 Y93.729 E.43238
G1 X115.991 Y94.947 E.05035
G1 X106.043 Y84.999 E.52701
G1 X105.304 Y84.654 E.03056
G1 X104.955 Y84.561 E.01354
G1 X116.43 Y96.036 E.60789
G1 X116.668 Y96.924 E.03444
G1 X104.067 Y84.323 E.66754
G1 X103.178 Y84.085 E.03444
G1 X116.906 Y97.812 E.7272
G1 X117.144 Y98.7 E.03444
G1 X102.29 Y83.847 E.78686
G1 X102.196 Y83.821 E.00365
G1 X101.559 Y83.766 E.02395
G1 X117.225 Y99.431 E.82987
G1 X117.287 Y100.144 E.02679
G1 X100.847 Y83.703 E.87091
G1 X100.134 Y83.641 E.02679
G1 X117.349 Y100.856 E.91196
G1 X117.412 Y101.568 E.02679
G1 X99.422 Y83.579 E.953
G1 X98.99 Y83.541 E.01623
G1 X98.755 Y83.562 E.00886
G1 X117.429 Y102.236 E.98925
G1 X117.377 Y102.834 E.02248
G1 X98.157 Y83.614 E1.01815
G1 X97.559 Y83.666 E.02248
G1 X117.324 Y103.431 E1.04705
G1 X117.272 Y104.029 E.02248
G1 X96.961 Y83.719 E1.07595
G1 X96.364 Y83.771 E.02248
G1 X117.22 Y104.627 E1.10484
G1 X117.165 Y105.222 E.02239
G1 X95.769 Y83.826 E1.13345
G1 X95.256 Y83.963 E.01988
G1 X117.027 Y105.735 E1.15334
G1 X116.89 Y106.247 E.01988
G1 X94.743 Y84.101 E1.17322
G1 X94.23 Y84.238 E.01988
G1 X116.752 Y106.76 E1.1931
G1 X116.615 Y107.273 E.01988
G1 X93.718 Y84.375 E1.21298
G1 X93.205 Y84.513 E.01988
G1 X116.478 Y107.785 E1.23286
G1 X116.34 Y108.298 E.01988
G1 X92.692 Y84.65 E1.25274
G1 X92.247 Y84.855 E.01836
G1 X116.136 Y108.744 E1.26549
G1 X115.929 Y109.187 E.01832
G1 X91.804 Y85.062 E1.27802
G1 X91.36 Y85.268 E.01832
M73 P0 R115
M73 P0 R115
G1 X115.722 Y109.63 E1.29056
G1 X115.515 Y110.074 E.01832
G1 X90.917 Y85.475 E1.30309
G1 X90.474 Y85.682 E.01832
G1 X115.309 Y110.517 E1.31563
G1 X115.102 Y110.96 E.01832
G1 X90.03 Y85.889 E1.32816
G1 X89.761 Y86.014 E.01113
G1 X89.611 Y86.119 E.00686
G1 X114.871 Y111.38 E1.33816
G1 X114.603 Y111.762 E.01749
G1 X89.228 Y86.387 E1.34423
G1 X88.846 Y86.655 E.01749
G1 X114.336 Y112.144 E1.35031
G1 X114.068 Y112.527 E.01749
G1 X88.464 Y86.922 E1.35638
G1 X88.081 Y87.19 E.01749
G1 X113.8 Y112.909 E1.36246
G1 X113.533 Y113.292 E.01749
G1 X87.699 Y87.458 E1.36853
G1 X87.316 Y87.726 E.01749
G1 X113.265 Y113.674 E1.37461
G1 X113.131 Y113.865 E.00874
G1 X112.968 Y114.028 E.00861
G1 X86.963 Y88.022 E1.37765
G1 X86.638 Y88.347 E.01722
G1 X112.643 Y114.353 E1.37765
G1 X112.318 Y114.678 E.01722
M73 P1 R115
M73 P1 R115
G1 X86.313 Y88.672 E1.37765
G1 X85.988 Y88.997 E.01722
G1 X111.993 Y115.003 E1.37765
G1 X111.668 Y115.328 E.01722
G1 X85.663 Y89.322 E1.37765
G1 X85.338 Y89.647 E.01722
G1 X111.343 Y115.653 E1.37765
G1 X111.018 Y115.978 E.01722
G1 X85.012 Y89.972 E1.37765
G1 X84.85 Y90.135 E.00861
G1 X84.716 Y90.326 E.00875
G1 X110.664 Y116.274 E1.37461
G1 X110.282 Y116.542 E.01749
G1 X84.448 Y90.708 E1.36853
G1 X84.181 Y91.091 E.01749
G1 X109.9 Y116.81 E1.36246
G1 X109.517 Y117.078 E.01749
G1 X83.913 Y91.473 E1.35638
G1 X83.645 Y91.856 E.01749
G1 X109.135 Y117.345 E1.35031
G1 X108.753 Y117.613 E.01749
G1 X83.378 Y92.238 E1.34423
G1 X83.11 Y92.62 E.01749
G1 X108.37 Y117.881 E1.33816
G1 X108.22 Y117.986 E.00686
G1 X107.951 Y118.111 E.01114
G1 X82.879 Y93.04 E1.32816
G1 X82.672 Y93.483 E.01832
G1 X107.507 Y118.318 E1.31562
G1 X107.064 Y118.525 E.01832
G1 X82.466 Y93.926 E1.30309
G1 X82.259 Y94.37 E.01832
G1 X106.621 Y118.732 E1.29056
G1 X106.177 Y118.938 E.01832
G1 X82.052 Y94.813 E1.27802
G1 X81.845 Y95.257 E.01832
G1 X105.734 Y119.145 E1.26549
G1 X105.289 Y119.35 E.01836
G1 X81.641 Y95.702 E1.25274
G1 X81.503 Y96.215 E.01988
G1 X104.776 Y119.487 E1.23285
G1 X104.263 Y119.625 E.01988
M73 P1 R114
M73 P1 R114
G1 X81.366 Y96.727 E1.21297
G1 X81.229 Y97.24 E.01988
G1 X103.75 Y119.762 E1.19309
G1 X103.238 Y119.899 E.01988
G1 X81.091 Y97.753 E1.17321
G1 X80.954 Y98.265 E.01988
G1 X102.725 Y120.037 E1.15333
G1 X102.212 Y120.174 E.01988
G1 X80.816 Y98.778 E1.13345
G1 X80.761 Y99.373 E.02239
G1 X101.617 Y120.229 E1.10484
G1 X101.019 Y120.281 E.02248
G1 X80.709 Y99.971 E1.07594
G1 X80.657 Y100.569 E.02248
G1 X100.422 Y120.334 E1.04704
G1 X99.824 Y120.386 E.02248
G1 X80.604 Y101.167 E1.01815
G1 X80.552 Y101.764 E.02248
G1 X99.226 Y120.438 E.98925
G1 X98.99 Y120.459 E.00886
G1 X98.559 Y120.421 E.01623
G1 X80.569 Y102.432 E.95299
G1 X80.632 Y103.144 E.02679
G1 X97.846 Y120.359 E.91195
G1 X97.134 Y120.297 E.02679
G1 X80.694 Y103.856 E.87091
G1 X80.756 Y104.569 E.02679
G1 X96.422 Y120.234 E.82986
G1 X95.785 Y120.179 E.02395
G1 X95.69 Y120.153 E.00366
G1 X80.837 Y105.3 E.78685
G1 X81.075 Y106.188 E.03444
G1 X94.802 Y119.915 E.72719
G1 X93.914 Y119.677 E.03444
G1 X81.313 Y107.076 E.66753
G1 X81.551 Y107.964 E.03444
G1 X93.026 Y119.439 E.60788
G1 X92.677 Y119.346 E.01353
G1 X91.938 Y119.001 E.03057
G1 X81.99 Y109.053 E.52699
G1 X82.558 Y110.271 E.05035
G1 X90.72 Y118.433 E.43237
G1 X89.761 Y117.986 E.03962
G1 X89.299 Y117.662 E.02111
G1 X83.328 Y111.691 E.31631
G1 X84.846 Y113.859 E.09913
G1 X87.969 Y116.982 E.16543
; stop printing object 8-2.stl id:9430540301969130088 copy 0
M106 S255
;LAYER_CHANGE
;Z:0.5
;HEIGHT:0.3
G1 E-.7 F3600
;WIPE_START
G1 F1200
G1 X87.261 Y116.275 E-.3
;WIPE_END
;_SET_FAN_SPEED_CHANGING_LAYER
M140 S60 ; set bed temperature
; printing object 8-2.stl id:9430540301969130088 copy 0
SET_VELOCITY_LIMIT ACCEL=700 ACCEL_TO_DECEL=350
G1 X89.785 Y109.072 Z.9 F9000
G1 X98.991 Y82.803 Z.9
G1 Z.5
G1 E1 F2400
SET_VELOCITY_LIMIT ACCEL=500 ACCEL_TO_DECEL=250
;TYPE:Inner wall
;WIDTH:0.45
G1 F6000
G1 X102.324 Y83.095 E.15774
G1 X105.556 Y83.961 E.1577
G1 X108.589 Y85.375 E.15774
G1 X111.33 Y87.294 E.15771
G1 X113.696 Y89.66 E.15772
G1 X115.615 Y92.401 E.15771
G1 X117.03 Y95.434 E.15774
G1 X117.896 Y98.666 E.1577
G1 X118.187 Y102 E.15774
G1 X117.896 Y105.334 E.15774
G1 X117.03 Y108.566 E.1577
G1 X115.615 Y111.599 E.15774
G1 X113.696 Y114.34 E.15771
G1 X111.33 Y116.706 E.15772
G1 X108.589 Y118.625 E.15771
G1 X105.556 Y120.039 E.15774
G1 X102.324 Y120.905 E.1577
G1 X98.99 Y121.197 E.15774
G1 X95.657 Y120.905 E.15774
G1 X92.425 Y120.039 E.1577
G1 X89.392 Y118.625 E.15774
G1 X86.651 Y116.706 E.15771
G1 X84.285 Y114.34 E.15772
G1 X82.366 Y111.599 E.15771
G1 X80.951 Y108.566 E.15774
G1 X80.085 Y105.334 E.1577
G1 X79.794 Y102 E.15774
G1 X80.085 Y98.666 E.15774
G1 X80.951 Y95.434 E.1577
G1 X82.366 Y92.401 E.15774
G1 X84.285 Y89.66 E.15771
G1 X86.651 Y87.294 E.15772
G1 X89.392 Y85.375 E.15771
G1 X92.425 Y83.961 E.15774
G1 X95.657 Y83.095 E.1577
G1 X98.951 Y82.807 E.15586
SET_VELOCITY_LIMIT ACCEL=700 ACCEL_TO_DECEL=350
G1 X98.991 Y82.416 F9000
SET_VELOCITY_LIMIT ACCEL=500 ACCEL_TO_DECEL=250
G1 F6000
G1 X102.392 Y82.714 E.16092
G1 X105.689 Y83.597 E.16088
G1 X108.783 Y85.04 E.16091
G1 X111.579 Y86.998 E.16089
G1 X113.993 Y89.412 E.16091
G1 X115.95 Y92.208 E.16089
G1 X117.393 Y95.302 E.16091
G1 X118.277 Y98.599 E.16088
G1 X118.575 Y102 E.16092
G1 X118.277 Y105.401 E.16092
G1 X117.393 Y108.698 E.16088
G1 X115.95 Y111.792 E.16091
G1 X113.993 Y114.588 E.16089
G1 X111.579 Y117.002 E.16091
G1 X108.783 Y118.96 E.16089
G1 X105.689 Y120.403 E.16091
G1 X102.392 Y121.286 E.16088
G1 X98.99 Y121.584 E.16092
G1 X95.589 Y121.286 E.16092
G1 X92.292 Y120.403 E.16088
G1 X89.198 Y118.96 E.16091
G1 X86.402 Y117.002 E.16089
G1 X83.988 Y114.588 E.16091
G1 X82.031 Y111.792 E.16089
G1 X80.588 Y108.698 E.16091
G1 X79.704 Y105.401 E.16088
G1 X79.406 Y102 E.16092
G1 X79.704 Y98.599 E.16092
G1 X80.588 Y95.302 E.16088
G1 X82.031 Y92.208 E.16091
G1 X83.988 Y89.412 E.16089
G1 X86.402 Y86.998 E.16091
G1 X89.198 Y85.04 E.16089
G1 X92.292 Y83.597 E.16091
G1 X95.589 Y82.714 E.16088
G1 X98.951 Y82.419 E.15904
SET_VELOCITY_LIMIT ACCEL=700 ACCEL_TO_DECEL=350
G1 X98.991 Y82.054 F9000
SET_VELOCITY_LIMIT ACCEL=500 ACCEL_TO_DECEL=250
;TYPE:Outer wall
;WIDTH:0.4
G1 F1680
G1 X102.454 Y82.357 E.14261
G1 X105.812 Y83.257 E.14262
G1 X108.964 Y84.727 E.14268
G1 X111.812 Y86.72 E.1426
G1 X114.27 Y89.179 E.14263
G1 X116.264 Y92.027 E.14262
G1 X117.733 Y95.178 E.14262
G1 X118.633 Y98.536 E.14262
G1 X118.937 Y102 E.14265
G1 X118.633 Y105.464 E.14265
G1 X117.733 Y108.822 E.14262
G1 X116.264 Y111.973 E.14262
G1 X114.27 Y114.821 E.14262
G1 X111.812 Y117.28 E.14263
G1 X108.964 Y119.273 E.1426
M73 P2 R114
M73 P2 R114
G1 X105.812 Y120.743 E.14268
G1 X102.454 Y121.643 E.14262
G1 X98.99 Y121.946 E.14265
G1 X95.527 Y121.643 E.14261
G1 X92.169 Y120.743 E.14262
G1 X89.017 Y119.273 E.14268
G1 X86.169 Y117.28 E.1426
G1 X83.711 Y114.821 E.14263
G1 X81.717 Y111.973 E.14262
G1 X80.248 Y108.822 E.14262
G1 X79.348 Y105.464 E.14262
G1 X79.044 Y102 E.14265
G1 X79.348 Y98.536 E.14265
G1 X80.248 Y95.178 E.14262
G1 X81.717 Y92.027 E.14262
G1 X83.711 Y89.179 E.14262
G1 X86.169 Y86.72 E.14263
G1 X89.017 Y84.727 E.1426
G1 X92.169 Y83.257 E.14268
G1 X95.527 Y82.357 E.14262
G1 X98.951 Y82.057 E.141
SET_VELOCITY_LIMIT ACCEL=700 ACCEL_TO_DECEL=350
G1 E-.7 F3600
;WIPE_START
G1 F1680
G1 X99.947 Y82.143 E-.3
;WIPE_END
G1 X102.159 Y89.447 Z.9 F9000
G1 X110.537 Y117.113 Z.9
G1 Z.5
G1 E1 F2400
SET_VELOCITY_LIMIT ACCEL=500 ACCEL_TO_DECEL=250
;TYPE:Internal solid infill
;WIDTH:0.401014
G1 F6000
G1 X113.489 Y114.161 E.17177
G1 X114.6 Y112.574 E.07974
G1 X109.564 Y117.61 E.29305
G1 X108.453 Y118.388 E.05585
G1 X108.185 Y118.513 E.01214
G1 X115.504 Y111.195 E.42585
G1 X115.92 Y110.303 E.0405
G1 X107.293 Y118.929 E.50197
G1 X106.401 Y119.345 E.0405
G1 X116.336 Y109.411 E.57809
G1 X116.752 Y108.519 E.0405
G1 X105.509 Y119.761 E.6542
G1 X104.846 Y119.948 E.02834
G1 X116.938 Y107.856 E.70365
G1 X117.113 Y107.205 E.02771
G1 X104.196 Y120.122 E.75164
G1 X103.545 Y120.296 E.02771
G1 X117.287 Y106.555 E.79963
G1 X117.461 Y105.905 E.02771
G1 X102.895 Y120.471 E.84762
G1 X102.251 Y120.639 E.02738
G1 X117.629 Y105.261 E.89486
G1 X117.675 Y104.739 E.02155
G1 X101.729 Y120.684 E.92788
G1 X101.208 Y120.73 E.02155
G1 X117.72 Y104.217 E.9609
G1 X117.766 Y103.695 E.02155
G1 X100.686 Y120.776 E.99391
G1 X100.164 Y120.821 E.02155
G1 X117.812 Y103.174 E1.02693
G1 X117.857 Y102.652 E.02155
G1 X99.642 Y120.867 E1.05994
G1 X99.121 Y120.913 E.02155
G1 X117.903 Y102.13 E1.09296
G1 X117.914 Y102 E.00538
G1 X117.886 Y101.672 E.01357
G1 X98.662 Y120.895 E1.11864
G1 X98.224 Y120.857 E.01808
G1 X117.847 Y101.234 E1.14189
G1 X117.809 Y100.796 E.01808
G1 X97.786 Y120.819 E1.16513
G1 X97.349 Y120.78 E.01808
